svg/instagram.svg

<svg height="16" viewBox="0 0 16 16" width="16" xmlns="http://www.w3.org/2000/svg"><path d="m13.636 12.294c0 .74-.602 1.341-1.342 1.341h-8.588c-.74 0-1.342-.601-1.342-1.341v-5.73h2.09c-.18.443-.282.927-.282 1.436a3.833 3.833 0 0 0 3.828 3.828 3.833 3.833 0 0 0 3.828-3.828 3.82 3.82 0 0 0 -.282-1.437h2.09zm-7.634-5.73a2.46 2.46 0 0 1 1.998-1.029c.822 0 1.55.406 1.998 1.027.292.405.466.9.466 1.437a2.467 2.467 0 0 1 -2.464 2.465 2.467 2.467 0 0 1 -2.464-2.464c0-.537.175-1.032.466-1.437 0 0-.291.405 0 0zm7.069-3.95.31-.002v2.374l-2.367.006-.008-2.372zm-.777-1.614h-8.588a2.708 2.708 0 0 0 -2.706 2.705v8.589a2.71 2.71 0 0 0 2.706 2.706h8.588a2.71 2.71 0 0 0 2.706-2.706v-8.589a2.708 2.708 0 0 0 -2.706-2.705z" fill="#111" fill-rule="evenodd"/></svg>

<svg aria-hidden="true" role="img" class="icon" xmlns="http://www.w3.org/2000/svg" width="16" height="16" viewBox="0 0 16 16"><path fill="#111" fill-rule="evenodd" d="M13.636 12.294c0 .74-.602 1.341-1.342 1.341H3.706c-.74 0-1.342-.601-1.342-1.341v-5.73h2.09c-.18.443-.282.927-.282 1.436A3.833 3.833 0 008 11.828 3.833 3.833 0 0011.828 8a3.82 3.82 0 00-.282-1.437h2.09v5.731zm-7.634-5.73A2.46 2.46 0 018 5.535c.822 0 1.55.406 1.998 1.027.292.405.466.9.466 1.437A2.467 2.467 0 018 10.464 2.467 2.467 0 015.536 8c0-.537.175-1.032.466-1.437 0 0-.291.405 0 0zm7.069-3.95l.31-.002v2.374l-2.367.006-.008-2.372 2.065-.006zM12.294 1H3.706A2.708 2.708 0 001 3.705v8.589A2.71 2.71 0 003.706 15h8.588A2.71 2.71 0 0015 12.294V3.705A2.708 2.708 0 0012.294 1z"/></svg>
